assets/data/legends/Sound/55_mask-rasterised-01.svg

<?xml version="1.0" encoding="UTF-8" standalone="no"?>
<!-- Generator: Adobe Illustrator 18.0.0, SVG Export Plug-In . SVG Version: 6.00 Build 0)  -->

<svg
   version="1.1"
   id="Layer_9"
   x="0px"
   y="0px"
   width="9451.45px"
   height="623.52px"
   viewBox="0 0 9451.45 623.52"
   enable-background="new 0 0 9451.45 623.52"
   xml:space="preserve"
   sodipodi:docname="55_mask-rasterised-01.svg"
   inkscape:version="1.1.1 (3bf5ae0d25, 2021-09-20)"
   xmlns:inkscape="http://www.inkscape.org/namespaces/inkscape"
   xmlns:sodipodi="http://sodipodi.sourceforge.net/DTD/sodipodi-0.dtd"
   xmlns="http://www.w3.org/2000/svg"
   xmlns:svg="http://www.w3.org/2000/svg"><defs
   id="defs7" /><sodipodi:namedview
   id="namedview5"
   pagecolor="#505050"
   bordercolor="#eeeeee"
   borderopacity="1"
   inkscape:pageshadow="0"
   inkscape:pageopacity="0"
   inkscape:pagecheckerboard="0"
   showgrid="false"
   inkscape:zoom="1.8655338"
   inkscape:cx="6160.4351"
   inkscape:cy="497.71277"
   inkscape:window-width="1366"
   inkscape:window-height="705"
   inkscape:window-x="-8"
   inkscape:window-y="-8"
   inkscape:window-maximized="1"
   inkscape:current-layer="Layer_9" />
<path
   id="path117"
   style="fill:#000000;stroke-width:0.238747"
   d="m 6248.8887,457.70508 c -1.272,-0.0768 -2.7259,0.39941 -3.1934,1.69726 -0.5945,1.71315 -0.3403,3.57733 -0.4178,5.36015 -0.014,2.39491 0.1428,4.91763 -1.0158,7.10787 -1.9154,3.92865 -4.2622,7.62814 -6.4366,11.41557 -1.1916,2.01702 -2.4026,4.08979 -3.7294,6.0754 -1.2837,0.45866 -2.4327,1.63832 -2.2871,3.08594 0.1103,0.71058 0.1439,1.42706 -0.1871,2.0924 -2.029,5.29897 -4.3496,10.48177 -6.5417,15.71469 -1.5685,3.63133 -3.0632,7.29786 -4.7966,10.85502 -0.9975,0.4515 -1.5992,1.45412 -1.9957,2.40464 -1.3505,0.99202 -2.9081,1.97123 -4.2836,2.74379 -0.076,-1.59411 0.2839,-3.48254 -0.9336,-4.74609 -1.0535,-0.89963 -2.5873,-0.74925 -3.8281,-0.39258 -1.433,0.56832 -1.7784,2.24218 -1.7626,3.62372 -0.052,1.41715 -0.059,2.83557 -0.097,4.25323 -1.3682,-0.0471 -2.29,1.27138 -2.4316,2.52038 -0.08,0.56586 -0.1462,1.15249 -0.6544,1.51341 -1.2586,1.29544 -2.5946,2.51449 -3.9179,3.74356 -0.054,-3.93871 0.087,-7.88406 -0.1257,-11.81821 -0.031,-1.34455 -0.7375,-2.9008 -2.2088,-3.09544 -1.3579,-0.22796 -3.0425,0.18441 -3.5794,1.59684 -0.5917,1.76246 -0.3306,3.67139 -0.4385,5.49995 -0.033,0.81261 0.012,1.68001 -0.087,2.46139 -1.445,0.14257 -2.3622,1.53987 -2.4141,2.9082 -0.1635,2.18457 -0.102,4.37848 -0.1856,6.56641 -0.9043,0.15743 -2.0209,0.31691 -2.9583,0.45943 -0.4363,-0.0759 -1.4602,0.53963 -1.3752,-0.15317 -0.099,-3.81822 0.091,-7.64617 -0.1656,-11.45818 -0.053,-1.35764 -0.9512,-2.80718 -2.4091,-2.90277 -1.3209,-0.15702 -2.8808,0.21398 -3.4726,1.53711 -0.6934,1.85368 -0.4394,3.88651 -0.5401,5.82615 -0.031,2.35416 -0.032,4.70903 -0.099,7.06252 -0.5344,0.36773 -0.9655,-0.0242 -1.4316,-0.30664 -1.5666,-0.94673 -3.2868,-1.63381 -4.7969,-2.66797 -0.5772,-0.65574 -0.3901,-1.66025 -0.4863,-2.47107 -0.1019,-2.93205 0.1346,-5.88459 -0.2188,-8.80237 -0.1802,-1.35507 -1.4134,-2.47363 -2.805,-2.34482 -1.2376,-0.0693 -2.6263,0.41878 -3.0973,1.66123 -0.6136,1.68826 -0.3778,3.54082 -0.4725,5.30537 -0.019,1.24204 -0.031,2.48429 -0.071,3.72588 -2.2436,-0.26478 -4.4929,-0.4822 -6.7461,-0.64453 -0.074,-2.01653 0.1358,-4.06168 -0.2,-6.05795 -0.236,-1.38978 -1.6637,-2.28901 -3.0275,-2.07722 -1.2918,-0.0772 -2.6704,0.60193 -3.0459,1.90861 -0.4721,1.89404 -0.198,3.87372 -0.3926,5.80078 -2.3169,0.18997 -4.654,0.11107 -6.9766,0.0527 0.015,-1.34094 0.092,-3.00405 -1.1933,-3.82617 -1.0715,-0.59086 -2.4038,-0.41692 -3.5293,-0.084 -1.2939,0.53936 -1.6386,2.04974 -1.6014,3.31899 0.2285,0.71319 -0.36,0.6453 -0.8591,0.62353 -2.0088,-0.01 -4.0386,0.1429 -6.0337,-0.12612 -0.3303,-2.20256 -0.1091,-4.44955 -0.1917,-6.67065 -0.078,-1.5836 0.1745,-3.49152 -1.0978,-4.68271 -1.0145,-0.83241 -2.5055,-0.7314 -3.6675,-0.30289 -1.5045,0.65658 -1.7002,2.4827 -1.7233,3.92772 -0.1002,2.69392 -0.064,5.39149 -0.1497,8.08596 -0.6297,0.15034 -1.2409,0.36609 -1.8497,0.58398 -1.5538,-1.34168 -3.0418,-2.77433 -4.4374,-4.28051 -0.9848,-1.10194 -0.5974,-2.69602 -0.6968,-4.04096 -0.083,-1.68545 0.2137,-3.46802 -0.4162,-5.07264 -0.5198,-1.22264 -1.9625,-1.5991 -3.1764,-1.38135 -1.3963,-0.0129 -2.5912,1.16163 -2.6481,2.54611 -0.1218,0.57347 0,1.29418 -0.1563,1.7938 -1.6492,0.29048 -2.7826,2.00772 -2.5605,3.63867 -1.2619,2.02201 -2.7986,3.85939 -4.2032,5.78321 0.04,-1.32337 -0.2071,-2.95732 -1.5762,-3.54177 -1.0565,-0.41757 -2.2808,-0.2838 -3.3593,-0.009 -1.3842,0.43571 -1.8852,1.998 -1.8419,3.32151 -0.029,0.50268 -0.029,0.97681 -0.051,1.45192 -2.2625,-0.0878 -4.5307,0.0189 -6.791,-0.11328 -0.1255,-1.64861 0.2867,-3.45148 -0.5391,-4.96679 -0.3879,-0.56876 -0.9896,-0.98217 -1.6738,-1.09375 -0.2785,-4.92464 -0.1491,-9.86278 -0.1888,-14.79336 -0.041,-6.10085 0.091,-12.20659 -0.1539,-18.30372 -0.099,-1.55296 -0.1845,-3.55196 -1.7893,-4.32899 -1.4275,-0.60254 -3.4532,-0.18803 -4.0788,1.37191 -0.7193,1.85205 -0.5502,3.8997 -0.674,5.84945 -0.1951,9.78476 -0.01,19.57435 -0.2599,29.3579 -0.1439,2.13325 -0.063,4.36187 -0.8484,6.38296 -0.4088,0.75484 -1.4607,0.48427 -2.1733,0.58161 -4.8837,0.0274 -9.7657,-0.198 -14.6305,-0.61776 -0.099,-3.68286 0.087,-7.37507 -0.1534,-11.05231 -0.049,-1.35103 -0.9847,-2.75072 -2.4279,-2.81235 -1.2658,-0.12581 -2.7165,0.29197 -3.2644,1.54825 -0.6511,1.82561 -0.4083,3.81273 -0.5054,5.71559 -0.025,1.98346 -0.034,3.96731 -0.079,5.95042 -1.791,-0.37212 -3.5656,-0.82404 -5.3672,-1.14453 -1.3712,-1.76573 -2.7696,-3.53406 -3.8984,-5.46679 -0.2656,-1.02473 -0.2773,-2.22811 -1.16,-2.97745 -1.2803,-1.3055 -3.6254,-1.28629 -4.7867,0.16794 -0.645,0.70069 -0.9186,1.71605 -0.9439,2.60638 -0.7641,1.28272 -1.74,2.43356 -2.709,3.56641 -0.4476,-0.19662 -1.4975,0.18703 -1.4928,-0.44593 -0.1252,-2.57541 0.13,-5.17454 -0.2138,-7.73467 -0.1843,-1.39354 -1.5266,-2.44875 -2.9269,-2.26397 -1.2789,-0.0782 -2.6809,0.53444 -3.0794,1.83519 -0.5354,1.86233 -0.295,3.84135 -0.3989,5.75616 -0.035,0.88678 0.01,1.81576 -0.076,2.67744 -2.3474,1.05884 -4.4915,2.50362 -6.7129,3.79492 -0.082,-3.7418 0.096,-7.49258 -0.1543,-11.22852 -0.067,-1.31027 -0.7872,-2.74074 -2.177,-3.00726 -1.409,-0.23775 -3.1984,0.0218 -3.8503,1.47406 -0.7535,1.7522 -0.5167,3.73195 -0.6164,5.59513 -0.079,3.81535 0.011,7.63601 -0.1786,11.44784 -0.9032,0.69901 -1.1497,1.89518 -1.1093,2.98047 -1.1883,1.0182 -1.4375,2.82555 -0.8399,4.2207 -0.036,0.66209 -0.6928,0.44143 -1.1502,0.62886 -1.24,0.30243 -1.8887,1.63919 -1.7048,2.84605 0.055,1.36784 1.386,2.24077 2.6636,2.25751 3.4562,0.2376 6.9271,0.0926 10.3894,0.15385 62.3883,0.12923 124.7769,0.12702 187.1653,0.11395 20.386,-0.0168 40.7723,0.003 61.1581,-0.09 1.6662,-0.0116 3.7154,0.13054 4.8397,-1.36158 1.1916,-1.6344 1.0511,-3.78674 1.1823,-5.70894 0.105,-5.97936 0.077,-11.96159 0.018,-17.94141 -0.099,-1.61396 0.1028,-3.38073 -0.7232,-4.83776 -0.819,-1.34623 -2.7755,-1.41216 -4.0205,-0.68367 -1.4436,0.95091 -1.3627,2.88374 -1.4503,4.41748 -0.1072,3.73669 -0.081,7.47573 -0.1288,11.21345 -2.7808,-5.86771 -5.6086,-11.86375 -8.3368,-17.8163 -0.3896,-1.04737 -1.0435,-2.04888 -1.1759,-3.16593 0.2451,-1.20502 0.024,-2.64103 -1.1123,-3.32292 -0.4838,-0.18258 -0.7211,-0.57089 -0.7791,-1.07494 -3.5355,-11.99233 -7.1085,-23.95842 -10.5365,-35.9807 -0.4993,-1.9873 -1.2675,-3.9773 -1.0555,-6.06108 -0.015,-3.04196 0.079,-6.09307 -0.143,-9.12829 -0.069,-1.36069 -1.1208,-2.6722 -2.5485,-2.6775 -0.091,-0.005 -0.1821,-0.0172 -0.2733,-0.007 z m 25.5918,85.59375 c 0.3678,0.50429 0.094,1.20936 0.1894,1.79883 -0.4075,0.45366 -0.8503,1.2682 -1.5508,1.06836 -1.0579,-0.51056 -0.8656,-1.99866 0.01,-2.5879 0.3938,-0.2504 0.8934,-0.37304 1.3535,-0.27929 z" />
</svg>

<?xml version="1.0" encoding="UTF-8" standalone="no"?>
<!-- Generator: Adobe Illustrator 18.0.0, SVG Export Plug-In . SVG Version: 6.00 Build 0)  -->

<svg
   version="1.1"
   id="Layer_9"
   x="0px"
   y="0px"
   width="9451.45px"
   height="623.52px"
   viewBox="0 0 9451.45 623.52"
   enable-background="new 0 0 9451.45 623.52"
   xml:space="preserve"
   sodipodi:docname="55_mask-rasterised-01.svg"
   inkscape:version="1.1.1 (c3084ef, 2021-09-22)"
   xmlns:inkscape="http://www.inkscape.org/namespaces/inkscape"
   xmlns:sodipodi="http://sodipodi.sourceforge.net/DTD/sodipodi-0.dtd"
   xmlns="http://www.w3.org/2000/svg"
   xmlns:svg="http://www.w3.org/2000/svg"><defs
   id="defs7" /><sodipodi:namedview
   id="namedview5"
   pagecolor="#505050"
   bordercolor="#eeeeee"
   borderopacity="1"
   inkscape:pageshadow="0"
   inkscape:pageopacity="0"
   inkscape:pagecheckerboard="0"
   showgrid="false"
   inkscape:zoom="4.4379309"
   inkscape:cx="6225.0857"
   inkscape:cy="520.51284"
   inkscape:window-width="1440"
   inkscape:window-height="762"
   inkscape:window-x="0"
   inkscape:window-y="25"
   inkscape:window-maximized="1"
   inkscape:current-layer="Layer_9" />
<path
   id="path117"
   style="fill:#000000;stroke-width:0.238747"
   d="M 6248.8867 457.70508 C 6247.6152 457.62887 6246.1626 458.10514 6245.6953 459.40234 C 6245.1008 461.11549 6245.3548 462.9789 6245.2773 464.76172 C 6245.2633 467.15663 6245.4203 469.68085 6244.2617 471.87109 C 6242.3463 475.79974 6239.9986 479.49773 6237.8242 483.28516 C 6236.6326 485.30218 6235.4225 487.37572 6234.0957 489.36133 C 6232.812 489.81999 6231.663 490.99965 6231.8086 492.44727 C 6231.9189 493.15785 6231.9521 493.87372 6231.6211 494.53906 C 6229.5921 499.83803 6227.2722 505.02099 6225.0801 510.25391 C 6223.5116 513.88524 6222.0166 517.55221 6220.2832 521.10938 C 6219.2857 521.56088 6218.6836 522.56315 6218.2871 523.51367 C 6216.9366 524.50569 6215.3794 525.48525 6214.0039 526.25781 C 6213.9279 524.6637 6214.2878 522.77527 6213.0703 521.51172 C 6212.0168 520.61209 6210.483 520.76247 6209.2422 521.11914 C 6207.8092 521.68746 6207.4647 523.36065 6207.4805 524.74219 C 6207.4285 526.15934 6207.4208 527.57843 6207.3828 528.99609 C 6206.0146 528.94899 6205.0928 530.26662 6204.9512 531.51562 C 6204.8712 532.08149 6204.8051 532.66838 6204.2969 533.0293 C 6203.0383 534.32474 6201.7022 535.54437 6200.3789 536.77344 C 6200.3249 532.83473 6200.4666 528.88923 6200.2539 524.95508 C 6200.2229 523.61053 6199.5162 522.05402 6198.0449 521.85938 C 6196.687 521.63141 6195.0017 522.0446 6194.4648 523.45703 C 6193.8731 525.21949 6194.1333 527.12847 6194.0254 528.95703 C 6193.9924 529.76964 6194.0385 530.63659 6193.9395 531.41797 C 6192.4945 531.56054 6191.5773 532.95784 6191.5254 534.32617 C 6191.3619 536.51074 6191.4234 538.70465 6191.3398 540.89258 C 6190.4355 541.05001 6189.3183 541.20904 6188.3809 541.35156 C 6187.9446 541.27566 6186.9209 541.89202 6187.0059 541.19922 C 6186.9069 537.381 6187.0964 533.55224 6186.8398 529.74023 C 6186.7868 528.38259 6185.8895 526.93348 6184.4316 526.83789 C 6183.1107 526.68087 6181.5508 527.05187 6180.959 528.375 C 6180.2656 530.22868 6180.5187 532.26153 6180.418 534.20117 C 6180.387 536.55533 6180.3873 538.91018 6180.3203 541.26367 C 6179.7859 541.6314 6179.3548 541.23947 6178.8887 540.95703 C 6177.3221 540.0103 6175.6019 539.32322 6174.0918 538.28906 C 6173.5146 537.63332 6173.7017 536.62918 6173.6055 535.81836 C 6173.5036 532.88631 6173.7401 529.93341 6173.3867 527.01562 C 6173.2065 525.66056 6171.9736 524.54111 6170.582 524.66992 C 6169.3444 524.60062 6167.9554 525.08958 6167.4844 526.33203 C 6166.8708 528.02029 6167.1064 529.87217 6167.0117 531.63672 C 6166.9927 532.87876 6166.9795 534.12169 6166.9395 535.36328 C 6164.6959 535.0985 6162.4466 534.88108 6160.1934 534.71875 C 6160.1194 532.70222 6160.3299 530.65643 6159.9941 528.66016 C 6159.7581 527.27038 6158.3306 526.37219 6156.9668 526.58398 C 6155.675 526.50678 6154.2954 527.18551 6153.9199 528.49219 C 6153.4478 530.38623 6153.7219 532.36591 6153.5273 534.29297 C 6151.2104 534.48294 6148.8734 534.40407 6146.5508 534.3457 C 6146.5658 533.00476 6146.6427 531.34165 6145.3574 530.51953 C 6144.2859 529.92867 6142.9536 530.10263 6141.8281 530.43555 C 6140.5342 530.97491 6140.1913 532.48466 6140.2285 533.75391 C 6140.457 534.4671 6139.8682 534.40068 6139.3691 534.37891 C 6137.3603 534.36891 6135.3291 534.52097 6133.334 534.25195 C 6133.0037 532.04939 6133.2252 529.80313 6133.1426 527.58203 C 6133.0646 525.99843 6133.3172 524.08963 6132.0449 522.89844 C 6131.0304 522.06603 6129.539 522.16719 6128.377 522.5957 C 6126.8725 523.25228 6126.6774 525.07842 6126.6543 526.52344 C 6126.5541 529.21736 6126.5896 531.9149 6126.5039 534.60938 C 6125.8742 534.75972 6125.2631 534.97547 6124.6543 535.19336 C 6123.1005 533.85168 6121.6124 532.41829 6120.2168 530.91211 C 6119.232 529.81017 6119.6209 528.21603 6119.5215 526.87109 C 6119.4385 525.18564 6119.7354 523.40345 6119.1055 521.79883 C 6118.5857 520.57619 6117.1416 520.20022 6115.9277 520.41797 C 6114.5314 520.40507 6113.3362 521.58036 6113.2793 522.96484 C 6113.1575 523.53831 6113.2793 524.25819 6113.123 524.75781 C 6111.4738 525.04829 6110.3404 526.76553 6110.5625 528.39648 C 6109.3006 530.41849 6107.764 532.25587 6106.3594 534.17969 C 6106.3994 532.85632 6106.1523 531.22312 6104.7832 530.63867 C 6103.7267 530.2211 6102.5023 530.35411 6101.4238 530.62891 C 6100.0396 531.06462 6099.5387 532.62766 6099.582 533.95117 C 6099.553 534.45385 6099.5532 534.92723 6099.5312 535.40234 C 6097.2688 535.31454 6095.0005 535.42124 6092.7402 535.28906 C 6092.6147 533.64045 6093.027 531.83758 6092.2012 530.32227 C 6091.8133 529.75351 6091.2115 529.3401 6090.5273 529.22852 C 6090.2488 524.30388 6090.3795 519.36613 6090.3398 514.43555 C 6090.2988 508.3347 6090.4304 502.22799 6090.1855 496.13086 C 6090.0865 494.5779 6090.0013 492.57976 6088.3965 491.80273 C 6086.969 491.20019 6084.942 491.61389 6084.3164 493.17383 C 6083.5971 495.02588 6083.7664 497.07369 6083.6426 499.02344 C 6083.4475 508.8082 6083.6327 518.59731 6083.3828 528.38086 C 6083.2389 530.51411 6083.3206 532.74258 6082.5352 534.76367 C 6082.1264 535.51851 6081.0739 535.24836 6080.3613 535.3457 C 6075.4776 535.3731 6070.5953 535.14828 6065.7305 534.72852 C 6065.6315 531.04566 6065.8185 527.35302 6065.5781 523.67578 C 6065.5291 522.32475 6064.5936 520.92491 6063.1504 520.86328 C 6061.8846 520.73747 6060.4327 521.15583 6059.8848 522.41211 C 6059.2337 524.23772 6059.478 526.22409 6059.3809 528.12695 C 6059.3559 530.11041 6059.3458 532.09502 6059.3008 534.07812 C 6057.5098 533.70601 6055.7352 533.25408 6053.9336 532.93359 C 6052.5624 531.16786 6051.164 529.39953 6050.0352 527.4668 C 6049.7696 526.44207 6049.7577 525.23957 6048.875 524.49023 C 6047.5947 523.18473 6045.2492 523.20397 6044.0879 524.6582 C 6043.4429 525.35889 6043.1698 526.37334 6043.1445 527.26367 C 6042.3804 528.54639 6041.4045 529.69723 6040.4355 530.83008 C 6039.9879 530.63346 6038.9387 531.01773 6038.9434 530.38477 C 6038.8182 527.80936 6039.0723 525.21052 6038.7285 522.65039 C 6038.5442 521.25685 6037.203 520.19999 6035.8027 520.38477 C 6034.5238 520.30657 6033.1212 520.91995 6032.7227 522.2207 C 6032.1873 524.08303 6032.4281 526.06175 6032.3242 527.97656 C 6032.2892 528.86334 6032.334 529.79262 6032.248 530.6543 C 6029.9006 531.71314 6027.7566 533.15792 6025.5352 534.44922 C 6025.4532 530.70742 6025.6312 526.95664 6025.3809 523.2207 C 6025.3139 521.91043 6024.5929 520.47941 6023.2031 520.21289 C 6021.7941 519.97514 6020.0054 520.23524 6019.3535 521.6875 C 6018.6 523.4397 6018.836 525.42002 6018.7363 527.2832 C 6018.6573 531.09855 6018.7482 534.91864 6018.5586 538.73047 C 6017.6554 539.42948 6017.4088 540.62565 6017.4492 541.71094 C 6016.2609 542.72914 6016.0118 544.53649 6016.6094 545.93164 C 6016.5734 546.59373 6015.9164 546.37312 6015.459 546.56055 C 6014.219 546.86298 6013.57 548.19939 6013.7539 549.40625 C 6013.8089 550.77409 6015.1404 551.64732 6016.418 551.66406 C 6019.8742 551.90166 6023.3443 551.75711 6026.8066 551.81836 C 6089.1949 551.94759 6151.5843 551.94471 6213.9727 551.93164 C 6234.3587 551.91484 6254.7451 551.9348 6275.1309 551.8418 C 6276.7971 551.8302 6278.8464 551.97259 6279.9707 550.48047 C 6281.1623 548.84607 6281.0211 546.69368 6281.1523 544.77148 C 6281.2573 538.79212 6281.2289 532.8099 6281.1699 526.83008 C 6281.0709 525.21612 6281.2733 523.44922 6280.4473 521.99219 C 6279.6283 520.64596 6277.6727 520.5801 6276.4277 521.30859 C 6274.9841 522.2595 6275.0642 524.19282 6274.9766 525.72656 C 6274.8694 529.46325 6274.8955 533.20173 6274.8477 536.93945 C 6272.0669 531.07174 6269.2399 525.0756 6266.5117 519.12305 C 6266.1221 518.07568 6265.4683 517.07408 6265.3359 515.95703 C 6265.581 514.75201 6265.359 513.31666 6264.2227 512.63477 C 6263.7389 512.45219 6263.5014 512.06264 6263.4434 511.55859 C 6259.9079 499.56626 6256.3342 487.6004 6252.9062 475.57812 C 6252.4069 473.59082 6251.6396 471.60136 6251.8516 469.51758 C 6251.8366 466.47562 6251.931 463.42389 6251.709 460.38867 C 6251.64 459.02798 6250.5879 457.71624 6249.1602 457.71094 C 6249.0698 457.70597 6248.9792 457.69527 6248.8887 457.70508 L 6248.8867 457.70508 z " />
</svg>
